X: 93
T: Cheerily the Huntsman
%R: air, jig
B: "The Everyday Song Book", 1927
F: http://www.library.pitt.edu/happybirthday/pdf/The_Everyday_Song_Book.pdf
Z: 2017 John Chambers <jc:trillian.mit.edu>
M: 6/8
L: 1/8
K: E
% - - - - - - - - - - - - - - - - - - - - - - - - - - - - -
[| E2 E G2 G | B3 G3 | A2 A (GF) G | F3 z2z |
w: 1.~Cheer-i-ly the hunts-man,   At the dawn* of day,
w: 2.~Thro' the sweep-ing for-est Free-ly he* doth roam;
w: 3.~All the world a-round him   He his king-*dom makes;
%
F2 G A2 G | c3 B3 | e2 B (AG) F | E3 z2 |]
w: Arm'd with bow and ar-row,   Comes to seek* his prey.
w: Moun-tain hill and wood-land Are his hap-*py home.
w: What his ar-row slay-eth,    He for boot-*y takes.
%
|: G/ A/ | B2 G/ A/ B2 G/ A/ | B3 G2 E | F2 F F E F | "^Repeat pp."E2 zz2 :|
w: La, la, la, la, la, la, la, la, la, la, La, la, la, la, la, la, la.
% - - - - - - - - - - - - - - - - - - - - - - - - - - - - -
